libs/icons/src/svg/circle-6.svg

<svg width="16" height="16" viewBox="0 0 16 16" fill="none" xmlns="http://www.w3.org/2000/svg">
<g clip-path="url(#clip0_4_385)">
<path fill-rule="evenodd" clip-rule="evenodd" d="M16 8C16 12.4183 12.4183 16 8 16C3.58172 16 0 12.4183 0 8C0 3.58172 3.58172 0 8 0C12.4183 0 16 3.58172 16 8ZM14.6666 8.00002C14.6666 11.6819 11.6818 14.6667 7.99994 14.6667C4.31804 14.6667 1.33327 11.6819 1.33327 8.00002C1.33327 4.31812 4.31804 1.33335 7.99994 1.33335C11.6818 1.33335 14.6666 4.31812 14.6666 8.00002ZM10.6582 9.34008C10.6618 10.7944 9.59531 11.886 8.00813 11.8753C6.5969 11.8681 5.19645 11.0027 5.20004 8.3059C5.20004 5.79226 6.31681 4.31999 8.08354 4.31999C9.47322 4.31999 10.432 5.21412 10.59 6.40271H9.27931C9.14286 5.83894 8.71554 5.47267 8.08354 5.47267C7.06372 5.47267 6.49636 6.41349 6.49277 7.96117H6.54304C6.89495 7.32917 7.59159 6.94494 8.38159 6.94494C9.67072 6.94494 10.6618 7.9504 10.6582 9.34008ZM6.6364 9.37958C6.63999 10.148 7.21454 10.798 8.00095 10.798C8.78018 10.798 9.36909 10.1732 9.3655 9.3688C9.36909 8.57881 8.79813 7.96117 8.0189 7.96117C7.23968 7.96117 6.64359 8.60753 6.6364 9.37958Z" fill="#202327"/>
</g>
<defs>
<clipPath id="clip0_4_385">
<rect width="16" height="16" fill="white"/>
</clipPath>
</defs>
</svg>

<svg xmlns="http://www.w3.org/2000/svg" viewBox="0 0 16 16" class="sageicon"><path fill-rule="evenodd" d="M16 8A8 8 0 1 1 0 8a8 8 0 0 1 16 0Zm-1.333 0A6.667 6.667 0 1 1 1.333 8a6.667 6.667 0 0 1 13.334 0Zm-4.009 1.34c.004 1.454-1.063 2.546-2.65 2.535-1.411-.007-2.812-.872-2.808-3.57 0-2.513 1.117-3.985 2.884-3.985 1.39 0 2.348.894 2.506 2.083H9.28c-.137-.564-.564-.93-1.196-.93-1.02 0-1.588.94-1.591 2.488h.05c.352-.632 1.049-1.016 1.839-1.016 1.289 0 2.28 1.005 2.276 2.395Zm-4.022.04c.004.768.579 1.418 1.365 1.418.78 0 1.368-.625 1.365-1.43.003-.79-.568-1.407-1.347-1.407-.78 0-1.375.647-1.383 1.419Z"/></svg>
